X:53217
F:http://www.vwml.org/record/HAM/5/32/17%%VWML:HAM-5-32-17-0
T:As I was a wlking by Newgates one day
S:Mrs Marina Russell, Upwey coll. HED Hammond
O:England
A:Dorset
N:Transcribed from HAM-02-232.gif
F:HAM-05-32-17.abc
Z:EFDSS;PJHeadford
M:C
L:1/4
Q:2/4=50
K:C
F/G/|A2 A>D|(DC) DA|(GF) EE&xxDD|D3 D|
GF GA/B/|cd2 c|B2 AG|A3 A|d2 fd|cA (B/c/)d|
c2 AD|(FE) FG|A2 B>c|d2 cA|G2 F>D|D3||
W:Transcribed from HAM-02-232.gif [the page has, printed in the top right corner:] 23
W:[left of title:] Dorian 575 [right of title:] Mrs Russell of Upwey
W:[below tune, in right margin:] Words D. VII p.66.
W:Words below transcribed from HAM-01-685.gif. [the page has, Written in top right corner:] 66. W:
W:'Twas out of the window he saw her bright eyes
W:Which struck the young sailor with a great surprise
W:He threw to the porter a large piece of gold
W:Saying "Show me the room to the joys of my soul.
W:
W:[on the verso leaf, opposite words:] Russell said this was a bit of
W:"As I was a walking by Newgates one day" see p. 43.
W:See "Through Moorfields" in F.S.J.
W:The MIDI file HAM-05-32-17.mid has two verses, the second using DD in bar 3.
